icons/pytorch-dark.svg

<svg width="256" height="256" viewBox="0 0 256 256" fill="none" xmlns="http://www.w3.org/2000/svg">
<rect width="256" height="256" rx="60" fill="#282828"/>
<path d="M180.975 90.4153L167.567 103.824C189.508 125.765 189.508 161.115 167.567 182.65C145.625 204.591 110.275 204.591 88.7404 182.65C66.7991 160.709 66.7991 125.359 88.7404 103.824L123.481 69.0835L128.357 64.2077V38L75.9413 90.4153C46.6862 119.67 46.6862 166.804 75.9413 196.059C105.196 225.314 152.33 225.314 180.975 196.059C210.23 166.6 210.23 119.67 180.975 90.4153Z" fill="#EE4C2C"/>
<path d="M154.77 87.1705C160.156 87.1705 164.522 82.8045 164.522 77.4188C164.522 72.0331 160.156 67.667 154.77 67.667C149.385 67.667 145.019 72.0331 145.019 77.4188C145.019 82.8045 149.385 87.1705 154.77 87.1705Z" fill="#EE4C2C"/>
</svg>

<svg xmlns="http://www.w3.org/2000/svg" width="256" height="256" fill="none"><rect width="256" height="256" fill="#282828" rx="60"/><path fill="#EE4C2C" d="m180.975 90.415-13.408 13.409c21.941 21.941 21.941 57.291 0 78.826-21.942 21.941-57.292 21.941-78.827 0-21.94-21.941-21.94-57.291 0-78.826l34.741-34.74 4.876-4.876V38L75.941 90.415c-29.255 29.255-29.255 76.389 0 105.644s76.389 29.255 105.034 0c29.255-29.459 29.255-76.389 0-105.644"/><path fill="#EE4C2C" d="M154.77 87.17c5.386 0 9.752-4.365 9.752-9.751s-4.366-9.752-9.752-9.752c-5.385 0-9.751 4.366-9.751 9.752s4.366 9.752 9.751 9.752"/></svg>
